X:469
T:B469-  Tom Tinker
S:(2nd/2)
Q:1/4=120
L:1/4
M:3/4
K:G
dd/e/ (f/d/)|gdd|BG(G/A/)|G2D|\
G/A/ G/A/ B/c/|ddA|FD(D/E/)|D2||A|\
A3/2B/ A/G/|FDD|B3/2c/ B/A/|GEE|\
c3/2d/ c/B/|AFd|BG(G/A/)|G3|]
